src/assets/icons/facebook.svg

<svg width="9" height="17" viewBox="0 0 9 17" fill="none" xmlns="http://www.w3.org/2000/svg">
<path opacity="0.7" fill-rule="evenodd" clip-rule="evenodd" d="M8.25768 3.04704C7.79662 2.9124 7.26639 2.82264 6.78227 2.82264C6.18289 2.82264 4.89191 3.20412 4.89191 3.94465V5.71742H7.95799V8.70196H4.89191V16.9375H1.80277V8.70196H0.28125V5.71742H1.80277V4.21393C1.80277 1.94747 2.86322 0.0625 5.42213 0.0625C6.29816 0.0625 7.86578 0.10738 8.71875 0.399102L8.25768 3.04704Z" fill="#3D3D3D"/>
</svg>

<svg width="9" height="17" fill="none" xmlns="http://www.w3.org/2000/svg"><path opacity=".7" fill-rule="evenodd" clip-rule="evenodd" d="M8.258 3.047a5.461 5.461 0 0 0-1.476-.224c-.6 0-1.89.381-1.89 1.122v1.772h3.066v2.985H4.892v8.236h-3.09V8.701H.283V5.717h1.52V4.214c0-2.267 1.061-4.152 3.62-4.152.876 0 2.444.045 3.297.337l-.461 2.648z" fill="#3D3D3D"/></svg>
